X: 1
T: Blair Athole
R: reel
Z: 2006 John Chambers <jc:trillian.mit.edu>
S: printed MS of unknown origin
M: C|
L: 1/8
K: Ador
E2 \
| "Am"A2AB AGEG | ABcd edcB | A2AB AGEF | "G"GABc dBGB | "Am"A2AB AGEG |
| ABcd e2a2 | "G"gedB GABd | "Am"c2A2 A2 :: e2 | "Am"a2ab agec | ABcd ecBA |
| "G"g2ga gedB | GABc dBAG | "Am"a2ab agec | ABcd e2a2 | "G"gedB GABd | "Am"c2A2 A2 :|
